timer-sync-outline.svg

<svg fill="currentColor" viewBox="0 0 24 24"><path d="M11 8h2v6h-2zm1 12c-3.87 0-7-3.13-7-7s3.13-7 7-7c3.19 0 5.88 2.14 6.72 5.05.28-.05.52-.05.78-.05.44 0 .88.05 1.3.13-.3-1.39-.91-2.67-1.77-3.74l1.42-1.42c-.45-.51-.9-.97-1.41-1.41L17.62 6c-1.55-1.26-3.5-2-5.62-2a9 9 0 0 0 0 18c.87 0 1.7-.13 2.5-.35-.45-.54-.8-1.15-1.05-1.8-.45.1-.95.15-1.45.15m3-19H9v2h6zm4 12.5V12l-2.25 2.25L19 16.5V15a2.5 2.5 0 0 1 2.5 2.5c0 .4-.09.78-.26 1.12l1.09 1.09c.42-.63.67-1.39.67-2.21 0-2.21-1.79-4-4-4m0 6.5a2.5 2.5 0 0 1-2.5-2.5c0-.4.09-.78.26-1.12l-1.09-1.09c-.42.63-.67 1.39-.67 2.21 0 2.21 1.79 4 4 4V23l2.25-2.25L19 18.5z"/></svg>

<svg  viewBox="0 0 24 24" fill="currentColor"><path  d="M11 8H13V14H11V8M12 20C8.13 20 5 16.87 5 13S8.13 6 12 6C15.19 6 17.88 8.14 18.72 11.05C19 11 19.24 11 19.5 11C19.94 11 20.38 11.05 20.8 11.13C20.5 9.74 19.89 8.46 19.03 7.39L20.45 5.97C20 5.46 19.55 5 19.04 4.56L17.62 6C16.07 4.74 14.12 4 12 4C7.03 4 3 8.03 3 13S7.03 22 12 22C12.87 22 13.7 21.87 14.5 21.65C14.05 21.11 13.7 20.5 13.45 19.85C13 19.95 12.5 20 12 20M15 1H9V3H15V1M19 13.5V12L16.75 14.25L19 16.5V15C20.38 15 21.5 16.12 21.5 17.5C21.5 17.9 21.41 18.28 21.24 18.62L22.33 19.71C22.75 19.08 23 18.32 23 17.5C23 15.29 21.21 13.5 19 13.5M19 20C17.62 20 16.5 18.88 16.5 17.5C16.5 17.1 16.59 16.72 16.76 16.38L15.67 15.29C15.25 15.92 15 16.68 15 17.5C15 19.71 16.79 21.5 19 21.5V23L21.25 20.75L19 18.5V20Z"/></svg>
